!! 00000] TT[00
!! NN
!!!OTL: Ritou chulai shai shangang
!!!ARE: Asia, China,ÿJiangxi, Yongxin
!! Ethnic Group: Han
!! IV, 230, 1)
!!!SCT: C0407
!!!YEM: Copyright 1995, estate of Helmut Schaffrath.
**kern
*ICvox
*Ivox
*M3/4
*k[f#c#]
*D:
{4b
4a
4b
=1
2.ee
=2
4ff#
8ee
8ff#
4ee
=3
2.b}
=4
{4dd
4ee
4ee
=5
2.b
=6
4dd
4b
8a
8b
=7
2.a}
=8
{4b
8b
8a
4b
=9
2.a
=10
4b
4dd
4a
=11
2.b}
=12
{4dd
8ee
8ff#
4ee
=13
2.b
=14
4dd
4b
8a
8b
=15
2.a}
==
!!!AGN: Shange. Laodong yu aiqing
!! Hier wird sogar noch Hunan- Dialekt gesprochen, weil der Ort recht
!!    nah an Hunan liegt.
!!    Vereinzelt Verzierungen.
!!!ONB: ESAC (Essen Associative Code) Database: CHINA
!!!AMT: simple triple
!!!AIN: vox
!!!EED: Helmut Schaffrath
!!!EEV: 1.0
*-
